svgs/light/vial-circle-check.svg

<svg xmlns="http://www.w3.org/2000/svg" viewBox="0 0 512 512"><!--! Font Awesome Pro 6.5.1 by @fontawesome - https://fontawesome.com License - https://fontawesome.com/license (Commercial License) Copyright 2023 Fonticons, Inc. --><path d="M0 48c0-8.8 7.2-16 16-16H32 64 192h32 16c8.8 0 16 7.2 16 16s-7.2 16-16 16H224V266.8c-20.2 28.6-32 63.5-32 101.2V224H64V384c0 35.3 28.7 64 64 64s64-28.7 64-64V368c0 25.2 5.3 49.1 14.8 70.8C189.5 463.7 160.6 480 128 480c-53 0-96-43-96-96V64H16C7.2 64 0 56.8 0 48zM64 64V192H192V64H64zM368 480a112 112 0 1 0 0-224 112 112 0 1 0 0 224zm0-256a144 144 0 1 1 0 288 144 144 0 1 1 0-288zm67.3 100.7c6.2 6.2 6.2 16.4 0 22.6l-72 72c-6.2 6.2-16.4 6.2-22.6 0l-40-40c-6.2-6.2-6.2-16.4 0-22.6s16.4-6.2 22.6 0L352 385.4l60.7-60.7c6.2-6.2 16.4-6.2 22.6 0z"/></svg>

<svg xmlns="http://www.w3.org/2000/svg" viewBox="0 0 512 512"><!--! Font Awesome Pro 6.1.1 by @fontawesome - https://fontawesome.com License - https://fontawesome.com/license (Commercial License) Copyright 2022 Fonticons, Inc. --><path d="M0 48C0 39.16 7.164 32 16 32H240C248.8 32 256 39.16 256 48C256 56.84 248.8 64 240 64H224V266.8C203.8 295.4 192 330.3 192 368V224H64V384C64 419.3 92.65 448 128 448C163.3 448 192 419.3 192 384V368C192 393.2 197.3 417.1 206.8 438.8C189.5 463.7 160.6 480 128 480C74.98 480 32 437 32 384V64H16C7.164 64 0 56.84 0 48V48zM64 64V192H192V64H64zM435.3 324.7C441.6 330.9 441.6 341.1 435.3 347.3L363.3 419.3C357.1 425.6 346.9 425.6 340.7 419.3L300.7 379.3C294.4 373.1 294.4 362.9 300.7 356.7C306.9 350.4 317.1 350.4 323.3 356.7L352 385.4L412.7 324.7C418.9 318.4 429.1 318.4 435.3 324.7H435.3zM224 368C224 288.5 288.5 224 368 224C447.5 224 512 288.5 512 368C512 447.5 447.5 512 368 512C288.5 512 224 447.5 224 368zM368 480C429.9 480 480 429.9 480 368C480 306.1 429.9 256 368 256C306.1 256 256 306.1 256 368C256 429.9 306.1 480 368 480z"/></svg>
